img/icon-vk.svg

<svg width="26" height="15" viewBox="0 0 26 15" fill="none" xmlns="http://www.w3.org/2000/svg">
<path d="M15.5403 11.7281C16.4609 11.4384 17.6395 13.6406 18.8943 14.4834C19.836 15.1219 20.5573 14.9841 20.5573 14.9841L23.9017 14.9372C23.9017 14.9372 25.6495 14.8322 24.8232 13.4803C24.7549 13.3678 24.3389 12.4781 22.334 10.6472C20.2376 8.73188 20.5217 9.04219 23.0456 5.73094C24.5835 3.7125 25.1988 2.47969 25.0062 1.95469C24.8213 1.44938 23.6918 1.58063 23.6918 1.58063L19.9237 1.60594C19.5568 1.60688 19.2458 1.7175 19.1042 2.08875C19.1013 2.0925 18.5062 3.65063 17.7127 4.97532C16.0362 7.7775 15.3669 7.92657 15.0896 7.75125C14.4531 7.34532 14.6139 6.12282 14.6139 5.25375C14.6139 2.53782 15.0299 1.40532 13.7992 1.11282C13.388 1.01532 13.0876 0.951567 12.0389 0.942192C10.6985 0.922505 9.56027 0.942192 8.91508 1.25063C8.48656 1.45969 8.15819 1.91813 8.35753 1.94438C8.6079 1.97719 9.1693 2.09438 9.46975 2.49375C9.8559 3.01125 9.84434 4.17094 9.84434 4.17094C9.84434 4.17094 10.0649 7.36875 9.32434 7.76532C8.8159 8.03719 8.12064 7.48219 6.62516 4.93782C5.86153 3.63657 5.28471 2.19844 5.28471 2.19844C5.28471 2.19844 5.17301 1.93125 4.97079 1.785C4.73005 1.61157 4.39301 1.55625 4.39301 1.55625L0.816563 1.57875C0.816563 1.57875 0.27923 1.59375 0.0818227 1.82438C-0.0934366 2.02875 0.0673782 2.45063 0.0673782 2.45063C0.0673782 2.45063 2.86864 8.90157 6.04064 12.1509C8.94879 15.1341 12.2537 14.9363 12.2537 14.9363H13.7511C13.7511 14.9363 14.2027 14.8856 14.4338 14.6438C14.6495 14.4188 14.6399 13.9959 14.6399 13.9959C14.6399 13.9959 14.61 12.0188 15.5403 11.7281Z" fill="white"/>
</svg>

<svg width="26" height="15" fill="none" xmlns="http://www.w3.org/2000/svg"><path d="M15.54 11.73c.92-.3 2.1 1.91 3.35 2.75.95.64 1.67.5 1.67.5l3.34-.04s1.75-.1.92-1.46c-.07-.11-.48-1-2.49-2.83-2.1-1.92-1.8-1.6.72-4.92C24.58 3.71 25.2 2.48 25 1.95c-.19-.5-1.32-.37-1.32-.37l-3.77.03c-.36 0-.67.1-.82.48 0 0-.6 1.56-1.39 2.89-1.67 2.8-2.34 2.95-2.62 2.77-.64-.4-.48-1.63-.48-2.5 0-2.71.42-3.84-.81-4.14-.41-.1-.71-.16-1.76-.17-1.34-.02-2.48 0-3.12.31-.43.21-.76.67-.56.7.25.03.8.14 1.11.54.39.52.37 1.68.37 1.68s.22 3.2-.52 3.6c-.5.27-1.2-.29-2.7-2.83-.76-1.3-1.34-2.74-1.34-2.74s-.1-.27-.3-.42c-.25-.17-.59-.22-.59-.22l-3.57.02s-.54.01-.74.24c-.17.2-.01.63-.01.63s2.8 6.45 5.97 9.7c2.9 2.98 6.21 2.79 6.21 2.79h1.5s.45-.05.68-.3c.22-.22.21-.64.21-.64s-.03-1.98.9-2.27z" fill="#fff"/></svg>
